src/imagens/sectionProjetos/iconeCss.svg

<svg width="15" height="17" viewBox="0 0 15 17" fill="none" xmlns="http://www.w3.org/2000/svg">
<path fill-rule="evenodd" clip-rule="evenodd" d="M14.5802 0.993164C14.8055 0.993164 14.9821 1.18673 14.9615 1.41108L13.7365 14.7363L7.84064 16.3532L1.94479 14.7363L0.719815 1.41108C0.699191 1.18673 0.875783 0.993164 1.10108 0.993164H14.5802ZM4.38769 9.88579H6.07222L6.11334 10.8963L7.84064 11.4616L9.56794 10.8963L9.69297 9.07737H5.98832L5.90278 7.46053H9.77851L9.90353 5.84369H4.09322L3.96656 4.22685H11.6736L11.463 7.46053L11.1669 12.109L7.84064 13.1605L4.51436 12.109L4.38769 9.88579Z" fill="#00FFC2"/>
</svg>

<svg xmlns="http://www.w3.org/2000/svg" width="15" height="17" fill="none"><path fill="#00FFC2" fill-rule="evenodd" d="M14.58.993c.226 0 .402.194.381.418l-1.225 13.325-5.895 1.617-5.896-1.617L.72 1.411A.383.383 0 0 1 1.1.993h13.48ZM4.388 9.886h1.684l.041 1.01 1.728.566 1.727-.566.125-1.819H5.988l-.085-1.616h3.876l.125-1.617h-5.81l-.127-1.617h7.707l-.211 3.234-.296 4.648-3.326 1.052-3.327-1.052-.126-2.223Z" clip-rule="evenodd"/></svg>
